static/images/osteopathie-shape-1.svg

<svg width="563" height="716" viewBox="0 0 563 716" fill="none" xmlns="http://www.w3.org/2000/svg">
<g clip-path="url(#clip0)">
<path d="M130.155 0.607503C188.619 -4.87325 241.45 31.2084 275.249 61.0481C308.896 90.8878 335.54 129.862 375.125 150.872C416.537 172.947 467.845 173.099 506.06 200.046C539.098 223.492 557.064 263.836 561.631 304.181C568.787 366.296 546.711 431.151 503.015 476.063C461.451 518.691 404.509 541.68 353.81 572.89C292.606 610.494 239.166 660.887 174.307 691.64C109.449 722.393 25.2548 729.244 -28.9462 682.048C-77.514 640.029 -87.258 569.236 -89.3895 504.989C-91.8255 426.889 -87.4102 348.331 -76.1437 270.992C-67.3132 209.79 -53.6107 147.674 -20.5725 95.4551C12.4658 43.2356 68.3415 1.97769 130.155 0.607503Z" fill="#FEF0A5"/>
</g>
<defs>
<clipPath id="clip0">
<rect width="653" height="716" fill="white" transform="translate(-90)"/>
</clipPath>
</defs>
</svg>

<svg width="563" height="716" fill="none" xmlns="http://www.w3.org/2000/svg"><g clip-path="url(#clip0)"><path d="M130.155.608c58.464-5.481 111.295 30.6 145.094 60.44 33.647 29.84 60.291 68.814 99.876 89.824 41.412 22.075 92.72 22.227 130.935 49.174 33.038 23.446 51.004 63.79 55.571 104.135 7.156 62.115-14.92 126.97-58.616 171.882-41.564 42.628-98.506 65.617-149.205 96.827-61.204 37.604-114.644 87.997-179.503 118.75-64.858 30.753-149.052 37.604-203.253-9.592-48.568-42.019-58.312-112.812-60.444-177.059-2.436-78.1 1.98-156.658 13.246-233.997 8.83-61.202 22.533-123.318 55.572-175.537C12.465 43.235 68.34 1.978 130.154.608z" fill="#FEF0A5"/></g><defs><clipPath id="clip0"><path fill="#fff" transform="translate(-90)" d="M0 0h653v716H0z"/></clipPath></defs></svg>
